!!!COM: Schubert, Franz
!!!CNT: Deutscher
!!!TXO: Deutsch
!!!LYR: Friedrich von Schiller
!!!OTL: "Des Ma2dchens Klage"
!!!OPS: Op. 58
!!!ONM: No. 3
!!!ODT: 1815/
!!NB: Vocal melody only encoded.
!!NB: Original key
**kern	**silbe
*staff1	*
*clefG2	*
*k[b-e-a-]	*
*M2/4	*
*MM[Langsam]	*
=1	=1
2r	.
=2	=2
2r	.
=3	=3
2r	.
=4	=4
4r	.
8.r	.
{16g	{Der
=5	=5
8.g	Eich-
16cc	-wald
8cc	braust,
16bn	|
16g	die
=6	=6
8g	Wol-
24g	|
24ee-	|
24cc	-ken
8cc	ziehn,
16bn}	|}
{16bn	{das
=7	=7
8b-	Ma2gd-
24b-	|
24f	|
24a-	-lein
8g	sitzt
8cc	an
=8	=8
8f	U-
24f	|
24g	|
24a-	-fers
8g}	Gru2n,}
16r	.
{16g	{es
=9	=9
8g	bricht
16g	sich
16g	die
8a-	Wel-
16g	-le
16g	mit
=10	=10
8.bn	Macht,
16g	mit
8.cc}	Macht,}
{16cc	{und
=11	=11
8cc	sie
16.cc	seufzt
32cc	hin-
[8ee-	-aus
24ee-]	|
24dd	in
24cc	die
=12	=12
[8b-	fin-
32b-]	|
32a-	|
32g	-stre
32a-	|
8.g}	Nacht,}
{16g	{das
=13	=13
8cc	Au-
24cc	|
24a-	-ge
24f	vom
8cc	Wei-
24cc	|
24b-	-nen
24a-	ge-
=14	=14
8g	-tru2-
16.a-	|
32g	|
8c}	-bet.}
8r	.
==	==
*-	*-